Papirus/64x64/mimetypes/application-vnd.jgraph.mxfile.svg

<?xml version="1.0" encoding="UTF-8" standalone="no"?>
<svg
   id="_图层_1"
   data-name="图层_1"
   version="1.1"
   viewBox="0 0 128 128"
   width="64"
   height="64"
   sodipodi:docname="application-vnd.jgraph.mxfile.svg"
   xml:space="preserve"
   inkscape:version="1.4 (e7c3feb100, 2024-10-09)"
   xmlns:inkscape="http://www.inkscape.org/namespaces/inkscape"
   xmlns:sodipodi="http://sodipodi.sourceforge.net/DTD/sodipodi-0.dtd"
   xmlns="http://www.w3.org/2000/svg"
   xmlns:svg="http://www.w3.org/2000/svg"><sodipodi:namedview
     id="namedview3"
     pagecolor="#505050"
     bordercolor="#eeeeee"
     borderopacity="1"
     inkscape:showpageshadow="0"
     inkscape:pageopacity="0"
     inkscape:pagecheckerboard="0"
     inkscape:deskcolor="#505050"
     inkscape:zoom="10.6875"
     inkscape:cx="32"
     inkscape:cy="41.169591"
     inkscape:window-width="1920"
     inkscape:window-height="939"
     inkscape:window-x="0"
     inkscape:window-y="34"
     inkscape:window-maximized="1"
     inkscape:current-layer="_图层_1" /><!-- Generator: Adobe Illustrator 29.0.1, SVG Export Plug-In . SVG Version: 2.1.0 Build 192)  --><defs
     id="defs1"><style
       id="style1">
      .st0 {
        fill: #0071e9;
      }

      .st1 {
        fill: #fff;
      }

      .st2 {
        fill: #5aaaff;
        isolation: isolate;
        opacity: .5;
      }
    </style></defs><path
     class="st0"
     d="M18.2,0c-5.6,0-10.2,4.6-10.2,10.2v107.6c0,5.6,4.6,10.2,10.2,10.2h91.6c5.6,0,10.2-4.6,10.2-10.2V40.6L82.2,0H18.2Z"
     id="path1"
     style="fill:#f58800;fill-opacity:1" /><path
     class="st2"
     d="m 82.761404,2.619883 v 29.2 c 0,3.2 2.145542,11.6 11.89801,11.6 h 24.966316 z"
     id="path2"
     style="fill:#c46d00;fill-opacity:1;stroke-width:0.987546" /><path
     class="st2"
     d="M 82.116964,0.02339171 V 29.223392 c 0,3.2 2.2,11.6 12.2,11.6 h 25.599996 z"
     id="path2-3"
     style="opacity:1;isolation:isolate;fill:#ffa637;fill-opacity:1" /><g
     id="g2"
     transform="matrix(2.5358852,0,0,2.2856263,-17.148326,-9.2770083)"><path
       style="fill:none;stroke:#3f3f3f;stroke-width:1.93847"
       d="M 23.276922,48.153845 32,32.646153 40.723077,48.153845"
       id="path6" /><path
       style="opacity:0.2"
       d="m 28,29 c -1.108,0 -2,0.892 -2,2 v 6 c 0,1.108 0.892,2 2,2 h 8 c 1.107999,0 2,-0.892 2,-2 v -6 c 0,-1.108 -0.892001,-2 -2,-2 z m -8,15 c -1.108,0 -2,0.892001 -2,2 v 6 c 0,1.108 0.892,2 2,2 h 8 c 1.107999,0 2,-0.892 2,-2 v -6 c 0,-1.107999 -0.892001,-2 -2,-2 z m 16,0 c -1.108,0 -2,0.892001 -2,2 v 6 c 0,1.108 0.892,2 2,2 h 8 c 1.107999,0 2,-0.892 2,-2 v -6 c 0,-1.107999 -0.892001,-2 -2,-2 z"
       id="path7" /><path
       style="fill:#ffffff"
       d="m 28,28 c -1.108,0 -2,0.892 -2,2 v 6 c 0,1.108 0.892,2 2,2 h 8 c 1.107999,0 2,-0.892 2,-2 v -6 c 0,-1.108 -0.892001,-2 -2,-2 z m -8,15 c -1.108,0 -2,0.892001 -2,2 v 6 c 0,1.108 0.892,2 2,2 h 8 c 1.107999,0 2,-0.892 2,-2 v -6 c 0,-1.107999 -0.892001,-2 -2,-2 z m 16,0 c -1.108,0 -2,0.892001 -2,2 v 6 c 0,1.108 0.892,2 2,2 h 8 c 1.107999,0 2,-0.892 2,-2 v -6 c 0,-1.107999 -0.892001,-2 -2,-2 z"
       id="path8" /></g></svg>

<svg xmlns="http://www.w3.org/2000/svg" width="64" height="64" version="1.1">
 <path style="opacity:0.2" d="M 12.75,5 C 11.2265,5 10,6.2488 10,7.8 v 50.4 c 0,1.55008 1.2265,2.8 2.75,2.8 h 38.5 C 52.7724,61 54,59.75008 54,58.2 V 23 L 40,19 36,5 Z"/>
 <path style="fill:#f58800" d="M 12.75,4 C 11.2265,4 10,5.2488 10,6.8 v 50.4 c 0,1.55008 1.2265,2.8 2.75,2.8 h 38.5 C 52.7724,60 54,58.75008 54,57.2 V 22 L 40,18 36,4 Z"/>
 <path style="opacity:0.2" d="M 54,23 36,5 V 20.1875 C 36,21.74675 37.2555,23 38.8125,23 Z"/>
 <path style="fill:#ffa637" d="M 54,22 36,4 V 19.1875 C 36,20.74675 37.2555,22 38.8125,22 Z"/>
 <path style="opacity:0.2;fill:#ffffff" d="M 12.75 4 C 11.2265 4 10 5.2495812 10 6.8007812 L 10 7.8007812 C 10 6.2495813 11.2265 5 12.75 5 L 36 5 L 36 4 L 12.75 4 z"/>
 <path style="fill:none;stroke:#3f3f3f;stroke-width:1.93847" d="M 23.276922,48.153845 32,32.646153 40.723077,48.153845"/>
 <path style="opacity:0.2" d="m 28,29 c -1.108,0 -2,0.892 -2,2 v 6 c 0,1.108 0.892,2 2,2 h 8 c 1.107999,0 2,-0.892 2,-2 v -6 c 0,-1.108 -0.892001,-2 -2,-2 z m -8,15 c -1.108,0 -2,0.892001 -2,2 v 6 c 0,1.108 0.892,2 2,2 h 8 c 1.107999,0 2,-0.892 2,-2 v -6 c 0,-1.107999 -0.892001,-2 -2,-2 z m 16,0 c -1.108,0 -2,0.892001 -2,2 v 6 c 0,1.108 0.892,2 2,2 h 8 c 1.107999,0 2,-0.892 2,-2 v -6 c 0,-1.107999 -0.892001,-2 -2,-2 z"/>
 <path style="fill:#ffffff" d="M 28 28 C 26.892 28 26 28.892 26 30 L 26 36 C 26 37.108 26.892 38 28 38 L 36 38 C 37.107999 38 38 37.108 38 36 L 38 30 C 38 28.892 37.107999 28 36 28 L 28 28 z M 20 43 C 18.892 43 18 43.892001 18 45 L 18 51 C 18 52.108 18.892 53 20 53 L 28 53 C 29.107999 53 30 52.108 30 51 L 30 45 C 30 43.892001 29.107999 43 28 43 L 20 43 z M 36 43 C 34.892 43 34 43.892001 34 45 L 34 51 C 34 52.108 34.892 53 36 53 L 44 53 C 45.107999 53 46 52.108 46 51 L 46 45 C 46 43.892001 45.107999 43 44 43 L 36 43 z"/>
</svg>
